24x24/apps/dgse_logo_128.svg

<svg xmlns="http://www.w3.org/2000/svg" width="24" height="24" version="1">
 <rect style="opacity:0.2" width="21" height="21" x="2" y="1.5" rx="6.3" ry="6.3"/>
 <rect style="fill:#f4f4f7" width="21" height="21" x="2" y="1" rx="6.3" ry="6.3"/>
 <path style="opacity:0.1" d="M 7.6328125,4.5 C 7.2286375,4.5 7,4.8041876 7,5.1816406 V 9 C 7,9 7,9.5 6.5,9.5 h -1 L 10,14 12.185547,11.880859 C 10.997658,10.633663 9.6872551,8.9529814 9.3457031,5.0214844 9.3204331,4.5927644 8.9375,4.5 8.9375,4.5 Z m 3.6132815,0 c 0,0 -0.405791,0.1272705 -0.466797,0.4609375 -0.437771,2.574733 -0.03674,5.0279245 1.611328,6.6933595 L 14.5,9.5 h -1 C 13,9.5 13,9 13,9 V 5.1816406 C 13,4.8041876 12.578003,4.5 12.173828,4.5 Z M 15,10 12.814453,12.119141 c 1.187889,1.247196 2.498292,2.927878 2.839844,6.859375 C 15.679567,19.407236 16.0625,19.5 16.0625,19.5 h 1.304688 C 17.771362,19.5 18,19.195812 18,18.818359 V 15 c 0,0 0,-0.5 0.5,-0.5 h 1 z M 12.609375,12.345703 10.5,14.5 h 1 C 12,14.5 12,15 12,15 v 3.818359 C 12,19.195812 12.421997,19.5 12.826172,19.5 h 0.927734 c 0,0 0.405791,-0.127271 0.466797,-0.460938 0.437771,-2.574733 0.03674,-5.027924 -1.611328,-6.693359 z"/>
 <path style="fill:#5c3420" d="m 15,9.5 -2.185949,2.118719 c 1.187889,1.247196 2.499527,2.928174 2.841079,6.859671 C 15.6804,18.90711 16.062249,19 16.062249,19 h 1.304938 C 17.771362,19 18,18.695812 18,18.318359 V 14.5 c 0,0 0,-0.5 0.5,-0.5 h 1 z M 12.609949,11.845281 10.5,14 h 1 c 0.5,0 0.5,0.5 0.5,0.5 v 3.818359 C 12,18.695812 12.421997,19 12.826172,19 h 0.92684 c 0,0 0.406221,-0.1274 0.467227,-0.461067 0.437771,-2.574733 0.03778,-5.028217 -1.61029,-6.693652 z"/>
 <path style="fill:#e8580d" d="m 10,13.5 2.185949,-2.118719 C 10.99806,10.134085 9.686422,8.453107 9.34487,4.52161 9.3196,4.09289 8.937751,4 8.937751,4 H 7.632813 C 7.228638,4 7,4.304188 7,4.681641 V 8.5 C 7,8.5 7,9 6.5,9 h -1 z M 12.390051,11.154719 14.5,9 h -1 C 13,9 13,8.5 13,8.5 V 4.681641 C 13,4.304188 12.578003,4 12.173828,4 h -0.92684 c 0,0 -0.406221,0.1274 -0.467227,0.461067 -0.437771,2.574733 -0.03778,5.028217 1.61029,6.693652 z"/>
 <path style="fill:#f4f4f7;opacity:0.2" d="M 8.3007812 1 C 4.8105811 1 2 3.8105811 2 7.3007812 L 2 7.8007812 C 2 4.3105811 4.8105811 1.5 8.3007812 1.5 L 16.699219 1.5 C 20.189419 1.5 23 4.3105811 23 7.8007812 L 23 7.3007812 C 23 3.8105811 20.189419 1 16.699219 1 L 8.3007812 1 z"/>
</svg>

<svg xmlns="http://www.w3.org/2000/svg" width="24" height="24" version="1"><rect style="opacity:.2" width="21" height="21" x="2" y="1.5" rx="6.3" ry="6.3"/><rect style="fill:#f4f4f7" width="21" height="21" x="2" y="1" rx="6.3" ry="6.3"/><path style="opacity:.1" d="M7.633 4.5c-.404 0-.633.304-.633.682V9s0 .5-.5.5h-1L10 14l2.186-2.12c-1.188-1.246-2.499-2.927-2.84-6.859-.026-.428-.409-.521-.409-.521zm3.613 0s-.406.127-.467.46c-.437 2.576-.036 5.029 1.612 6.694L14.5 9.5h-1C13 9.5 13 9 13 9V5.182c0-.378-.422-.682-.826-.682zM15 10l-2.186 2.12c1.188 1.246 2.499 2.927 2.84 6.859a.564.564 0 0 0 .409.521h1.304c.404 0 .633-.304.633-.682V15s0-.5.5-.5h1zm-2.39 2.346L10.5 14.5h1c.5 0 .5.5.5.5v3.818c0 .378.422.682.826.682h.928s.406-.127.467-.46c.437-2.576.036-5.029-1.612-6.694z"/><path style="fill:#5c3420" d="m15 9.5-2.186 2.119c1.188 1.247 2.5 2.928 2.841 6.86a.564.564 0 0 0 .407.521h1.305c.404 0 .633-.304.633-.682V14.5s0-.5.5-.5h1zm-2.39 2.345L10.5 14h1c.5 0 .5.5.5.5v3.818c0 .378.422.682.826.682h.927s.406-.127.467-.461c.438-2.575.038-5.028-1.61-6.694z"/><path style="fill:#e8580d" d="m10 13.5 2.186-2.119c-1.188-1.247-2.5-2.928-2.841-6.86C9.32 4.094 8.938 4 8.938 4H7.633C7.229 4 7 4.304 7 4.682V8.5s0 .5-.5.5h-1zm2.39-2.345L14.5 9h-1c-.5 0-.5-.5-.5-.5V4.682c0-.378-.422-.682-.826-.682h-.927s-.406.127-.467.461c-.438 2.575-.038 5.028 1.61 6.694z"/><path style="fill:#f4f4f7;opacity:.2" d="M8.3 1C4.81 1 2 3.81 2 7.3v.5c0-3.49 2.81-6.3 6.3-6.3h8.4c3.49 0 6.3 2.81 6.3 6.3v-.5C23 3.81 20.19 1 16.7 1H8.3z"/></svg>
